X:1497
T:Bj\"orndans
S:Christina Eketorp
R:Other
O:Sweden
M:4/4
K:Am
AB|\
c2Bc A2Bc|d2cd B2cd|e2fe dcBc|A2A2 E4::\
K:AMix
Ac|\
e2ce gfdf|fegb a2Ac|e2ce gfdf|feed cBcd|\
e2ce gfdf|fegb abag|e2fe dcBc|A6:|


